svg/fluentui-system-icons/ic_fluent_hourglass_half_20_regular.svg

<svg width="20" height="20" viewBox="0 0 20 20" fill="none" xmlns="http://www.w3.org/2000/svg">
<path d="M13.69 14.6C13.8891 15.0402 13.9947 15.5169 14 16H6C6.00608 15.5159 6.11516 15.0387 6.32 14.6C6.52759 14.1497 6.83544 13.753 7.22 13.44L9.04 11.92C9.32073 11.6855 9.54611 11.3918 9.7 11.06C9.85933 10.7294 9.9414 10.367 9.94 10H10.06C10.0741 10.3709 10.1733 10.7336 10.35 11.06C10.5014 11.3878 10.7234 11.678 11 11.91L12.78 13.44C13.1652 13.7548 13.476 14.1509 13.69 14.6ZM5.19531 17.8438C5.42448 17.9479 5.66667 18 5.92188 18H14.0781C14.3385 17.9948 14.5833 17.9427 14.8125 17.8438C15.0417 17.7448 15.2448 17.6042 15.4219 17.4219C15.599 17.2396 15.7396 17.0339 15.8438 16.8047C15.9479 16.5755 16 16.3333 16 16.0781C16 15.6667 15.9557 15.2682 15.8672 14.8828C15.7786 14.4974 15.6536 14.125 15.4922 13.7656C15.3307 13.4062 15.1302 13.0703 14.8906 12.7578C14.651 12.4453 14.375 12.1589 14.0625 11.8984L12.2422 10.3828C12.1849 10.3359 12.1406 10.2786 12.1094 10.2109C12.0781 10.1432 12.0625 10.0729 12.0625 10C12.0625 9.84896 12.1224 9.72135 12.2422 9.61719L14.0625 8.09375C14.6979 7.5625 15.1797 6.9401 15.5078 6.22656C15.8359 5.51302 16 4.74479 16 3.92188C15.9948 3.66146 15.9427 3.41667 15.8438 3.1875C15.7448 2.95833 15.6042 2.75521 15.4219 2.57812C15.2396 2.40104 15.0339 2.26042 14.8047 2.15625C14.5755 2.05208 14.3333 2 14.0781 2H5.92188C5.66146 2.00521 5.41667 2.05729 5.1875 2.15625C4.95833 2.25521 4.75521 2.39583 4.57812 2.57812C4.40104 2.76042 4.26042 2.96615 4.15625 3.19531C4.05208 3.42448 4 3.66667 4 3.92188C4.00521 4.74479 4.17188 5.51302 4.5 6.22656C4.82812 6.9401 5.30729 7.5625 5.9375 8.09375L7.75781 9.61719C7.8151 9.66406 7.85938 9.72135 7.89062 9.78906C7.92188 9.85677 7.9375 9.92708 7.9375 10C7.9375 10.151 7.8776 10.2786 7.75781 10.3828L5.9375 11.8984C5.625 12.1641 5.34896 12.4531 5.10938 12.7656C4.86979 13.0781 4.66667 13.4141 4.5 13.7734C4.33333 14.1328 4.20833 14.5052 4.125 14.8906C4.04167 15.276 4 15.6719 4 16.0781C4.00521 16.3385 4.05729 16.5833 4.15625 16.8125C4.25521 17.0417 4.39583 17.2448 4.57812 17.4219C4.76042 17.599 4.96615 17.7396 5.19531 17.8438ZM14.4062 16.9297C14.2917 16.9766 14.1693 17 14.0391 17H5.96094C5.82031 16.9948 5.69531 16.9688 5.58594 16.9219C5.47656 16.875 5.375 16.8073 5.28125 16.7188C5.1875 16.6302 5.11719 16.5286 5.07031 16.4141C5.02344 16.2995 5 16.1745 5 16.0391C5.00521 15.3828 5.14323 14.763 5.41406 14.1797C5.6849 13.5964 6.07292 13.0938 6.57812 12.6719L8.39844 11.1484C8.57031 11.0026 8.70312 10.8307 8.79688 10.6328C8.89062 10.4349 8.9375 10.224 8.9375 10C8.9375 9.77604 8.89062 9.5625 8.79688 9.35938C8.70312 9.15625 8.57031 8.98438 8.39844 8.84375L6.57812 7.32812C6.31771 7.11458 6.09375 6.88281 5.90625 6.63281C5.71875 6.38281 5.55469 6.11198 5.41406 5.82031C5.27344 5.52865 5.16927 5.22656 5.10156 4.91406C5.03385 4.60156 5 4.28385 5 3.96094C5.00521 3.82031 5.03125 3.69531 5.07812 3.58594C5.125 3.47656 5.19271 3.375 5.28125 3.28125C5.36979 3.1875 5.47135 3.11719 5.58594 3.07031C5.70052 3.02344 5.82552 3 5.96094 3H14.0391C14.1797 3.01042 14.3047 3.03646 14.4141 3.07812C14.5234 3.11979 14.625 3.1875 14.7188 3.28125C14.8125 3.375 14.8828 3.47917 14.9297 3.59375C14.9766 3.70833 15 3.83073 15 3.96094C14.9948 4.6276 14.8568 5.25 14.5859 5.82812C14.3151 6.40625 13.9271 6.90625 13.4219 7.32812L11.6016 8.84375C11.4297 8.98438 11.2969 9.15625 11.2031 9.35938C11.1094 9.5625 11.0625 9.77604 11.0625 10C11.0625 10.224 11.1094 10.4349 11.2031 10.6328C11.2969 10.8307 11.4297 11.0026 11.6016 11.1484L13.4219 12.6719C13.9323 13.099 14.3229 13.6016 14.5938 14.1797C14.8646 14.7578 15 15.3776 15 16.0391C14.9896 16.1797 14.9635 16.3047 14.9219 16.4141C14.8802 16.5234 14.8125 16.625 14.7188 16.7188C14.625 16.8125 14.5208 16.8828 14.4062 16.9297Z" fill="#212121"/>
</svg>

<svg xmlns="http://www.w3.org/2000/svg" width="20" height="20"><path d="M13.69 14.6c.2.44.305.917.31 1.4H6a3.41 3.41 0 0 1 .32-1.4 3.25 3.25 0 0 1 .9-1.16l1.82-1.52a2.48 2.48 0 0 0 .66-.86c.16-.33.241-.693.24-1.06h.12c.014.37.113.734.29 1.06.151.328.373.618.65.85l1.78 1.53c.385.315.696.71.91 1.16Zm-8.495 3.244c.23.104.472.156.727.156h8.156a1.884 1.884 0 0 0 1.344-.578c.177-.182.318-.388.422-.617.104-.23.156-.472.156-.727 0-.411-.044-.81-.133-1.195a6.004 6.004 0 0 0-.375-1.117 5.058 5.058 0 0 0-.601-1.008 5.376 5.376 0 0 0-.829-.86l-1.82-1.515a.497.497 0 0 1 0-.766l1.82-1.523a5.307 5.307 0 0 0 1.446-1.867A5.45 5.45 0 0 0 16 3.922a1.884 1.884 0 0 0-.578-1.344 2.166 2.166 0 0 0-.617-.422A1.736 1.736 0 0 0 14.078 2H5.922a1.884 1.884 0 0 0-1.344.578 2.167 2.167 0 0 0-.422.617c-.104.23-.156.472-.156.727.005.823.172 1.591.5 2.305a5.345 5.345 0 0 0 1.438 1.867l1.82 1.523a.498.498 0 0 1 0 .766l-1.82 1.515a5.65 5.65 0 0 0-.829.868 5.354 5.354 0 0 0-.984 2.125A5.604 5.604 0 0 0 4 16.078a1.884 1.884 0 0 0 .578 1.344c.182.177.388.318.617.422Zm9.211-.914a.96.96 0 0 1-.367.07H5.961a1.043 1.043 0 0 1-.375-.078 1.04 1.04 0 0 1-.305-.203.87.87 0 0 1-.21-.305A.981.981 0 0 1 5 16.04a4.448 4.448 0 0 1 .414-1.86 4.31 4.31 0 0 1 1.164-1.507l1.82-1.524a1.52 1.52 0 0 0 .399-.515 1.511 1.511 0 0 0 0-1.273 1.434 1.434 0 0 0-.399-.516l-1.82-1.516a4.02 4.02 0 0 1-.672-.695 4.888 4.888 0 0 1-.492-.813 4.06 4.06 0 0 1-.312-.906A4.488 4.488 0 0 1 5 3.961c.005-.14.031-.266.078-.375.047-.11.115-.211.203-.305a.868.868 0 0 1 .305-.21A.981.981 0 0 1 5.96 3h8.078c.14.01.266.036.375.078a.88.88 0 0 1 .305.203.948.948 0 0 1 .281.68 4.429 4.429 0 0 1-.414 1.867 4.329 4.329 0 0 1-1.164 1.5l-1.82 1.516a1.43 1.43 0 0 0-.399.515 1.512 1.512 0 0 0 0 1.274c.094.198.227.37.399.515l1.82 1.524c.51.427.9.93 1.172 1.508.27.578.406 1.198.406 1.86a1.33 1.33 0 0 1-.078.374.87.87 0 0 1-.203.305.95.95 0 0 1-.313.21Z"/></svg>
